X:1
T: Madge Wildfire's Strathspey
C:
R:Strathspey
Q: 128
K:Bb
M:4/4
L:1/16
|:E2|D3B F3B G3B F3B|c3B d3c BG3 G3B|D3F D3B G3B F3b|f3d e3c dB3 B2E2|
D3B F3B G3B F3B|c3B d3c BG3 G3B|B3f d3f g3f b3g|f3d e3c dB3 B2d2|
Bb3 f3g df3 B3d|c3B d3c BG3 G3B|D3B F3B G3B F3g|fd3 e3c d3B B2d2|
Bb3 f3g df3 B3d|c3B d3c BG3 G3B|B3f d3f g3f b3g|fd3 e3c dB3 B2:|
